X:1
T:Der Mond
T:Joseph Gersbach
T:Matthias Claudius
T:Der Mond
T:CPDL - Creative Commons Attribution Non Commercial 3.0
T:CPDL - Creative Commons Attribution Non Commercial 3.0
C:Joseph Gersbach
Z:Matthias Claudius
Z:CPDL - Creative Commons Attribution Non Commercial 3.0
%%score [ ( 1 2 ) ( 3 4 ) ]
L:1/8
M:4/4
K:E
V:1 treble nm="Sopran\nAlt"
V:2 treble 
V:3 bass nm="Tenor\nBass"
V:4 bass 
V:1
 B,2 | E2 F2 G2 B2 | c4 B2 G2 | F2 E2 BA AG | F6 | d2 | d2 c2 B2 ^A2 | (G3 ^A) G2 G2 | %8
w: 1.~In|stil- lem, hei- term|Glan- ze tritt|er so sanft * ein- *|her,|wer|ist im Ster- nen-|kran- * ze so|
w: 2.~Er|lohnt des Tags Be-|schwer- de, schließt|sanft die Au- * gen *|zu|und|winkt der mü- den|Er- * de zur|
w: 3.~Du,|der ihn uns ge-|ge- ben mit|sei- nem trau- * ten *|Licht,|hast|Freud' an fro- hem|Le- * ben, sonst|
 F>B B>d d2 ^A>B | B6 | B,2 | D2 E2 F2 G2 | (=A3 B) G2 E2 | E3 E E>A A>G | G6 | B2 | A2 G2 A2 B2 | %17
w: schön * ge- * schmückt, als *|er?|Er|wan- delt still be-|schei- * den, ver-|hüllt sein An- * ge- *|sicht,|und|gibt doch so viel|
w: stil- * len * A- bend- *|ruh';|Schenkt|mit der A- bend-|küh- * le der|See- le fri- * sche *|Lust;|die|se- lig- sten Ge-|
w: gäbst * du * ihn uns *|nicht.|Hab'|Dank für al- le|Freu- * den, hab'|Dank für dei- * nen *|Mond,|der|Ta- ges Last und|
 (c3 F) F2 F2 | FA AG BD D2 | E6 |] %20
w: Freu- * den mit|sei- * nem * trau- * ten|Licht.|
w: füh- * le gießt|er * in * uns- * re|Brust.|
w: Lei- * den so|reich, * so * freund- * lich|lohnt!|
V:2
 B,2 | E2 D2 E2 E2 | E4 E2 E2 | D2 C2 F2 FE | D6 | F2 | F2 F2 G2 F2 | E4 E2 E2 | D>F F>B B2 F2 | %9
 F6 | B,2 | D2 E2 D2 E2 | F4 E2 E2 | E3 C C2 E2 | E6 | E2 | D2 E2 E2 E2 | E4 E2 E2 | %18
 DF FE EB, B,2 | B,6 |] %20
V:3
 B,2 | B,2 B,2 B,2 G,2 | A,4 G,2 B,2 | B,2 G,2 B,2 B,2 | B,6 | B,2 | B,2 C2 D2 D2 | B,4 B,2 B,2 | %8
 B,>D D>F F2 C>D | D6 | B,2 | B,2 B,2 B,2 B,2 | B,4 B,2 B,2 | C3 A, A,2 A,>B, | B,6 | B,2 | %16
 B,2 B,2 A,2 G,2 | (A,3 C) C2 C2 | B,2 B,2 G,F, F,2 | G,6 |] %20
V:4
 B,2 | G,2 F,2 E,2 E,2 | (A,,2 C,2) E,2 E,2 | B,,2 C,2 D,2 E,2 | B,,6 | B,2 | B,2 ^A,2 G,2 D,2 | %7
 E,4 E,2 E,2 | F,2 F,2 F,2 F,2 | B,,6 | B,2 | =A,2 G,2 F,2 E,2 | D,4 E,2 G,2 | A,3 A,, A,,2 C,2 | %14
 E,6 | G,2 | F,2 E,2 C,2 B,,2 | A,,4 A,,2 A,,2 | B,,2 B,,2 B,,2 B,,2 | E,6 |] %20

